images/usecases/health-care/sport-complex-1.svg

<svg width="262" height="322" viewBox="0 0 262 322" fill="none" xmlns="http://www.w3.org/2000/svg">
<path d="M60.25 108C60.25 56.4995 101.999 14.75 153.5 14.75C205.001 14.75 246.75 56.4995 246.75 108C246.75 159.501 205.001 201.25 153.5 201.25C101.999 201.25 60.25 159.501 60.25 108Z" stroke="#3E9AF8" stroke-width="1.5"/>
<path d="M114.239 143.257V110.93" stroke="#3E9AF8" stroke-width="4.6879" stroke-linecap="round"/>
<path d="M190.515 143.452V111.125" stroke="#3E9AF8" stroke-width="4.6879" stroke-linecap="round"/>
<circle cx="181.056" cy="81.7133" r="18.4438" stroke="#3E9AF8" stroke-width="4.6879" stroke-linejoin="round"/>
<path d="M170.884 81.5902H191.004M173.58 77.5771V85.8489M188.584 77.5771V85.8489" stroke="#3E9AF8" stroke-width="4.6879" stroke-linecap="round"/>
<path d="M173.717 77.333V85.6048M188.721 77.333V85.6048" stroke="#3E9AF8" stroke-width="5.85987" stroke-linecap="round"/>
<path d="M116.68 103.117C116.68 104.411 115.631 105.461 114.336 105.461C113.042 105.461 111.992 104.411 111.992 103.117C111.992 101.822 113.042 100.773 114.336 100.773C115.631 100.773 116.68 101.822 116.68 103.117Z" fill="#3E9AF8"/>
<rect x="105.156" y="143.55" width="94.1486" height="11.5244" rx="3.12527" stroke="#3E9AF8" stroke-width="4.6879"/>
<path d="M160.63 86.5137H108.281C107.85 86.5137 107.5 86.8635 107.5 87.295V94.7175C107.5 95.149 107.85 95.4988 108.281 95.4988H168.833" stroke="#3E9AF8" stroke-width="4.6879" stroke-linecap="round"/>
<path d="M153.5 79.4816C154.795 79.4816 155.844 78.4322 155.844 77.1377C155.844 75.8432 154.795 74.7937 153.5 74.7937V79.4816ZM118.829 79.4816H153.5V74.7937H118.829V79.4816ZM120.392 88.0761V77.919H115.704V88.0761H120.392ZM118.829 74.7937C117.103 74.7937 115.704 76.193 115.704 77.919H120.392C120.392 78.782 119.692 79.4816 118.829 79.4816V74.7937Z" fill="#3E9AF8"/>
<rect x="130.353" y="107.609" width="44.3397" height="35.9406" rx="3.51592" stroke="#3E9AF8" stroke-width="4.6879"/>
<path d="M152.426 107.609V142.476" stroke="#3E9AF8" stroke-width="4.6879" stroke-linecap="round"/>
<path d="M0.5 110H43.5" stroke="#3E9AF8" stroke-width="1.5"/>
<line y1="-0.75" x2="80" y2="-0.75" transform="matrix(-4.37112e-08 -1 -1 4.37112e-08 150.5 298)" stroke="#3E9AF8" stroke-width="1.5"/>
<mask id="path-16-inside-1_10889_42954" fill="white">
<path d="M42.5 109.5C42.5 123.88 45.3323 138.119 50.8352 151.404C56.3381 164.689 64.4038 176.76 74.5718 186.928C84.7398 197.096 96.811 205.162 110.096 210.665C123.381 216.168 137.62 219 152 219V217.67C137.795 217.67 123.729 214.872 110.605 209.436C97.4812 204 85.5566 196.033 75.512 185.988C65.4675 175.943 57.4997 164.019 52.0636 150.895C46.6276 137.771 43.8297 123.705 43.8297 109.5H42.5Z"/>
</mask>
<path d="M42.5 109.5C42.5 123.88 45.3323 138.119 50.8352 151.404C56.3381 164.689 64.4038 176.76 74.5718 186.928C84.7398 197.096 96.811 205.162 110.096 210.665C123.381 216.168 137.62 219 152 219V217.67C137.795 217.67 123.729 214.872 110.605 209.436C97.4812 204 85.5566 196.033 75.512 185.988C65.4675 175.943 57.4997 164.019 52.0636 150.895C46.6276 137.771 43.8297 123.705 43.8297 109.5H42.5Z" fill="#3E9AF8" stroke="#3E9AF8" stroke-width="2" mask="url(#path-16-inside-1_10889_42954)"/>
<circle cx="12" cy="12" r="11.25" transform="matrix(1 0 0 -1 139.5 322)" fill="#F4F8FE" stroke="#3E9AF8" stroke-width="1.5"/>
</svg>

<svg width="262" height="322" fill="none" xmlns="http://www.w3.org/2000/svg"><path d="M60.25 108c0-51.5 41.749-93.25 93.25-93.25S246.75 56.5 246.75 108c0 51.501-41.749 93.25-93.25 93.25S60.25 159.501 60.25 108Z" stroke="#3E9AF8" stroke-width="1.5"/><path d="M114.239 143.257V110.93M190.515 143.452v-32.327" stroke="#3E9AF8" stroke-width="4.688" stroke-linecap="round"/><circle cx="181.056" cy="81.713" r="18.444" stroke="#3E9AF8" stroke-width="4.688" stroke-linejoin="round"/><path d="M170.884 81.59h20.12m-17.424-4.013v8.272m15.004-8.272v8.272" stroke="#3E9AF8" stroke-width="4.688" stroke-linecap="round"/><path d="M173.717 77.333v8.272m15.004-8.272v8.272" stroke="#3E9AF8" stroke-width="5.86" stroke-linecap="round"/><path d="M116.68 103.117a2.344 2.344 0 1 1-4.688 0 2.344 2.344 0 0 1 4.688 0Z" fill="#3E9AF8"/><rect x="105.156" y="143.55" width="94.149" height="11.524" rx="3.125" stroke="#3E9AF8" stroke-width="4.688"/><path d="M160.63 86.514h-52.349a.781.781 0 0 0-.781.781v7.422c0 .432.35.782.781.782h60.552" stroke="#3E9AF8" stroke-width="4.688" stroke-linecap="round"/><path d="M153.5 79.482a2.344 2.344 0 1 0 0-4.688v4.688Zm-34.671 0H153.5v-4.688h-34.671v4.688Zm1.563 8.594V77.92h-4.688v10.157h4.688Zm-1.563-13.282a3.125 3.125 0 0 0-3.125 3.125h4.688c0 .863-.7 1.563-1.563 1.563v-4.688Z" fill="#3E9AF8"/><rect x="130.353" y="107.609" width="44.34" height="35.941" rx="3.516" stroke="#3E9AF8" stroke-width="4.688"/><path d="M152.426 107.609v34.867" stroke="#3E9AF8" stroke-width="4.688" stroke-linecap="round"/><path d="M.5 110h43M151.25 298v-80" stroke="#3E9AF8" stroke-width="1.5"/><mask id="a" fill="#fff"><path d="M42.5 109.5A109.5 109.5 0 0 0 152 219v-1.33A108.173 108.173 0 0 1 43.83 109.5H42.5Z"/></mask><path d="M42.5 109.5A109.5 109.5 0 0 0 152 219v-1.33A108.173 108.173 0 0 1 43.83 109.5H42.5Z" fill="#3E9AF8" stroke="#3E9AF8" stroke-width="2" mask="url(#a)"/><circle cx="12" cy="12" r="11.25" transform="matrix(1 0 0 -1 139.5 322)" fill="#F4F8FE" stroke="#3E9AF8" stroke-width="1.5"/></svg>
